X:1
T:Lady, those cherries plenty - Morley
T:#
%%score [ 1 2 { 3 | 4 } 5 ]
L:1/8
Q:1/4=120
M:4/4
K:C
V:1 treble nm="Soprano" snm="S"
V:2 treble nm="Alto" snm="A"
V:3 treble-8 nm="Tenor I" snm="T"
V:4 treble-8 
V:5 bass nm="Bass" snm="B"
V:1
 G8 |"^Lady, those cherries plenty" G4 C2 c2- | c2 B2 A4 | B4 z2"^Thomas Morley \n(1557-1603)" G2 | %4
w: La-|dy, those cher\-|* ries plen-|ty, that|
[M:4/4] B3 c d2 B2 | A8- | A8 | A4 z2 d2 | A3 B c4- | c2 B2 A4 ||1 B8 :|2 B4 z2 c2- || c2 B4 B2 | %13
w: grow on your lips|dain\-||ty, which|grow on your|* lips dain-|ty-|\-ty, Ere|* long will|
 A2 A2 G4 | ^F4 z2 A2- | A2 d4 d2 | B2 G2 c4 | B4 z4 |: z8 | z8 | z8 | z4 c4 |[M:3/4] B4 B2 | %23
w: fade and lan-|guish, ere|* long will|fade and lan-|guish.||||Then|now, while|
[M:3/4] c4 B2 |[M:3/2] A4 A8 |[M:4/4] z8 | d2 dc B2 B2 x4 | A4 B4 |[M:4/4] z8 | G2 G2 F2 E2 | %30
w: yet they|last them,||O let me pull and|taste them.||O let me, and|
 D4 D4 | z8 | z4 G2 GA | B2 G2 d4 | A8 ||1 d2 dc B2 A2- || A2 (!>!G4 ^F2) | G8 :|2 %38
w: taste them,||O let me|pull and taste|them,|O let me pull and|* taste *|them.|
[Q:1/4=119] D2[Q:1/4=117] D[Q:1/4=116]E[Q:1/4=115] ^F2[Q:1/4=113] D2 ||[Q:1/4=109] d8- | %40
w: O let me pull and|taste|
[Q:1/4=103] d8 |[Q:1/4=100] B8 |] %42
w: |them.|
V:2
 z8 | z8 | z8 | z4 G,2 B,2- |[M:4/4] B,C D4 G,2 | D4 D2 D2 | ^C2 D2 E4 | ^F4 z2 D2 | F3 G A4- | %9
w: |||Which grow|* on your lips|dain- ty, on|your lips dain-|ty, which|grow on your|
 A2 G2 ^F4 ||1 G8 :|2 G4 z2 G2- || G2 G4 G2 | F2 D4 ^C2 | D4 D2 ^F2- | F2 =F2 G4 | G2 (G4 ^F2) | %17
w: * lips dain-|ty.|\-ty, Ere|* long will|fade and lan-|guish, ere long|* will fade|and lan\- *|
 G8 |: z8 | z8 | z8 | z4 G4 |[M:3/4] G4 G2 |[M:3/4] G4 G2 |[M:3/2] E4 ^F8 |[M:4/4] D2 DE ^F2 F2 | %26
w: guish.||||Then|now, while|yet they|last them,|O let me pull and|
 G4 G2 G2 x4 | ^F4 G4 |[M:4/4] z8 | z4 G,2 G,A, | B,2 B,2 (G,A, B,2) | A,4 z4 | D2 DC B,3 C | %33
w: taste them, and|taste them,||O let me|pull and taste * *|them,|O let me pull and|
 D4 G,4 | z4 D2 DE ||1 F4 F4 || D8 | B,4 z4 :|2 ^F3 G A4 || A,4 D4 | D8 | D8 |] %42
w: taste them.|O let me|pull and|taste|them.|pull and taste|them, and|taste|them.|
V:3
 z2 B2 c2 d2 | (ede^f g4) | ^f2 (g4 f2) | g8 |[M:4/4][K:treble-8] z4 z2 d2 | f3 g a2 f2 | %6
w: La- dy, those|cher\- * * * *|ries plen\- *|ty,|which|grow on your lips|
 (e2 d4 ^c2) | d8 | z2 d2 c3 d | e2 d2 d4 ||1 d8 :|2 d4 z2 e2- || e2 d4 d2 | d2 d2 G4 | A4 z2 D2 | %15
w: dain\- * *|ty,|which grow on|your lips dain-|ty.|\-ty. Ere|* long will|fade and lan-|guish, ere|
 D4 d2 B2- | B2 d2 c4 | d8 |: d8 | c6 c2 | c2 c2 d4 | e4 e4 |[M:4/4] d4 d2 z2 | %23
w: long will fade|* and lan-|guish.|Then|now, while|yet they last|them, Then|now, while|
[M:3/4][K:treble-8] e4 d2 |[M:3/4] ^c4 d4 x4 |[M:3/4] A2 AA B2 B2 | A4 G8 | z4 d2 dd | %28
w: yet they|last them,|O let me pull and|taste them,|O let me|
[M:4/4][K:treble-8] d2 d2 e4 | d4 z4 | G2 A2 B2 G2 | d4 D4 | z8 | z8 | d2 de ^f3 g ||1 a2 d4 z2 || %36
w: pull and taste|them,|let me pull and|taste them,|||O let me pull and|taste them|
 z2 D2 d4 | d8 :|2 a2 d2 d2 de || ^f2 d2 (g4- | g2 ^fe f4) | g8 |] %42
w: and taste|them.|taste them, O let me|pull and taste||them.|
V:4
 z2 G2 A2 B2 | (cBcd e2) e2 | d8 | G2 G2 B3 c |[M:4/4][K:treble-8] d2 B2 G2 D2 | z2 D2 F3 G | %6
w: La- dy, those|cher\- * * * * ries|plen-|ty, which grow on|your lips dain- ty,|which grow on|
 A2 F2 E4 | D2 D2 F3 E | D2 A4 A2 | E2 G2 A4 ||1 G8 :|2 G8 || z8 | z8 | z2 A4 d2- | d2 d2 B2 G2- | %16
w: your lips dain-|ty, which grow on|your lips on|your lips dain-|ty.|\-ty,|||Ere long|* will fade and|
 (GA B2) A4 | G4 B4- |: B4 A4- | A4 G2 A2- | A2 c2 B4 | c4 C4 |[M:4/4] G4 G2 z2 | %23
w: * * * lan-|guish. Then|* now,|* while yet|* they last|them, Then|now, while|
[M:3/4][K:treble-8] c4 G2 |[M:3/4] A4 D8 |[M:3/4] z4 d2 dc | B2 G2 d4- x4 | d4 G4 | %28
w: yet they|last them,|O let me|pull and taste|* them,|
[M:4/4][K:treble-8] B2 BA G2 c2 | B4 c4 | z8 | ^F2 FG A2 A2 | (BABc) d4 | z4 D2 DE | %34
w: O let me pull and|taste them,||O let me pull and|taste * * * them,|O let me|
 ^F3 G A2 D2 ||1 z4 d2 dc || B2 B2 A4 | G4 B4 :|2 z8 || d2 c2 B2 B2 | A8 | G8 |] %42
w: pull and taste them,|O let me|pull and taste|them. Then||O me pull and|taste|them.|
V:5
 z8 | z8 | z8 | z8 |[M:4/4] z2 G,,2 B,,3 C, | D,4 D,4 | A,,8 | D,8 | z2 D,2 A,,3 B,, | %9
w: ||||which grow on|your lips|dain-|ty,|which grow on|
 C,2 G,,2 D,4 ||1 G,,8 :|2 G,,4 z2 C,2- || C,2 G,4 G,2 | D,2 F,2 E,4 | D,8 | z8 | z8 | z4 G,4- |: %18
w: your lips dain-|ty.|\-ty, Ere|* long will|fade and lan-|guish.|||Then|
 G,4 F,4- | F,4 E,2 F,2- | F,2 A,2 G,4 | C,8 |[M:3/4] z6 |[M:3/4] z6 |[M:3/2] z4 z4 D,2 D,C, | %25
w: * now,|* while yet|* they last|them,|||O let me|
[M:4/4] B,,2 G,,2 D,4 | G,,8 x4 | z8 |[M:4/4] G,2 G,F, E,2 C,2 | G,4 C,4 | z8 | D,2 D,E, ^F,2 D,2 | %32
w: pull and taste|them,||O let me pull and|taste them,||O let me pull and|
 G,4 G,4 | G,,2 G,,A,, B,,2 G,,2 | D,8- ||1 D,8 || D,8 | G,,4 G,4 :|2 D,8- || D,8 | D,8 | G,,8 |] %42
w: taste them,|O let me pull and|taste|||them. Then||||them.|

